packages/gestalt-icons-android/vr-theme/ic_vr_invoice_gestalt.svg

<svg width="24" height="24" viewBox="0 0 24 24" fill="none" xmlns="http://www.w3.org/2000/svg">
<path fill-rule="evenodd" clip-rule="evenodd" d="M22 20C22 22.2091 20.2091 24 18 24H6C3.79086 24 2 22.2091 2 20V7.24264C2 6.18177 2.42143 5.16436 3.17157 4.41421L7.08579 0.5C7.40593 0.179855 7.84014 0 8.29289 0C9.2357 0 10 0.764297 10 1.70711V4C10 6.20914 8.20914 8 6 8H5C4.44772 8 4 8.44772 4 9V20C4 21.1046 4.89543 22 6 22H18C19.1046 22 20 21.1046 20 20V4C20 2.89543 19.1046 2 18 2H12V0H18C20.2091 0 22 1.79086 22 4V20ZM6 6H4.43288C4.48029 5.94022 4.5313 5.88291 4.58579 5.82843L8 2.41421V4C8 5.10457 7.10457 6 6 6Z" fill="black"/>
<path d="M7 10V12H17V10H7Z" fill="black"/>
<path d="M7 16V14H17V16H7Z" fill="black"/>
<path d="M12 20H17V18H12V20Z" fill="black"/>
</svg>

<svg xmlns="http://www.w3.org/2000/svg" width="24" height="24"><path d="M22 20a4 4 0 0 1-4 4H6a4 4 0 0 1-4-4V7.24a4 4 0 0 1 1.17-2.83L7.1.5A1.7 1.7 0 0 1 10 1.7V4a4 4 0 0 1-4 4H5a1 1 0 0 0-1 1v11c0 1.1.9 2 2 2h12a2 2 0 0 0 2-2V4a2 2 0 0 0-2-2h-6V0h6a4 4 0 0 1 4 4zM8 4V2.41L4.59 5.83 4.43 6H6a2 2 0 0 0 2-2m9 6v2H7v-2zM7 16v-2h10v2zm5 2h5v2h-5z"/></svg>
